src/topics/icons/freebsd.svg

<svg height="252" preserveAspectRatio="xMidYMid" viewBox="0 0 256 252" width="256" xmlns="http://www.w3.org/2000/svg"><g fill="#b5010f"><path d="m252.722963 5.10923976c13.507758 13.50143954-23.938678 72.84901644-30.269254 79.18275214-6.330577 6.3210998-22.409736.5054353-35.911176-12.9991632-13.507757-13.5014395-19.326581-29.5837578-12.996004-35.9143345 6.327418-6.3337357 65.671836-43.77701189 79.176434-30.26925444"/><path d="m63.3047797 19.3941039c-20.6217588-11.70082635-49.9654349-24.71578442-59.30019241-15.38102687-9.45795739 9.45479837 4.03400521 39.45869927 15.85803141 60.11836577 10.5225304-18.2935976 25.4897322-33.6935783 43.442161-44.7373389"/><path d="m232.123317 79.6356695c1.898541 6.4411407 1.557372 11.7608468-1.522624 14.834525-7.192975 7.1961345-26.623802-.4643686-44.140293-17.1342554-1.222522-1.0961628-2.435566-2.2333921-3.626498-3.4274829-6.333736-6.3368946-11.26173-13.0812965-14.414382-19.2918323-6.134721-11.0058529-7.66998-20.7260048-3.032612-25.3633733 2.527177-2.5240174 6.570659-3.2126729 11.501812-2.3250023 3.215831-2.0343769 7.012914-4.2993587 11.176437-6.6212019-16.928923-8.8293223-36.176529-13.81733658-56.592955-13.81733658-67.7188485 0-122.61859514 54.89026978-122.61859514 122.61543618 0 67.712531 54.89974664 122.609118 122.61859514 122.609118 67.718849 0 122.615436-54.896587 122.615436-122.609118 0-21.869552-5.739849-42.3775879-15.766421-60.1562733-2.167054 3.9550309-4.274087 7.5783699-6.1979 10.6867968"/></g></svg>

<?xml version="1.0" encoding="UTF-8" standalone="no"?>
<svg width="256px" height="252px" viewBox="0 0 256 252" version="1.1" xmlns="http://www.w3.org/2000/svg" xmlns:xlink="http://www.w3.org/1999/xlink" preserveAspectRatio="xMidYMid">
	<g fill="#B5010F">
		<path d="M252.722963,5.10923976 C266.230721,18.6106793 228.784285,77.9582562 222.453709,84.2919919 C216.123132,90.6130917 200.043973,84.7974272 186.542533,71.2928287 C173.034776,57.7913892 167.215952,41.7090709 173.546529,35.3784942 C179.873947,29.0447585 239.218365,-8.39851769 252.722963,5.10923976"></path>
		<path d="M63.3047797,19.3941039 C42.6830209,7.69327755 13.3393448,-5.32168052 4.00458729,4.01307703 C-5.4533701,13.4678754 8.0385925,43.4717763 19.8626187,64.1314428 C30.3851491,45.8378452 45.3523509,30.4378645 63.3047797,19.3941039"></path>
		<path d="M232.123317,79.6356695 C234.021858,86.0768102 233.680689,91.3965163 230.600693,94.4701945 C223.407718,101.666329 203.976891,94.0058259 186.4604,77.3359391 C185.237878,76.2397763 184.024834,75.102547 182.833902,73.9084562 C176.500166,67.5715616 171.572172,60.8271597 168.41952,54.6166239 C162.284799,43.610771 160.74954,33.8906191 165.386908,29.2532506 C167.914085,26.7292332 171.957567,26.0405777 176.88872,26.9282483 C180.104551,24.8938714 183.901634,22.6288896 188.065157,20.3070464 C171.136234,11.4777241 151.888628,6.48970982 131.472202,6.48970982 C63.7533535,6.48970982 8.85360686,61.3799796 8.85360686,129.105146 C8.85360686,196.817677 63.7533535,251.714264 131.472202,251.714264 C199.191051,251.714264 254.087638,196.817677 254.087638,129.105146 C254.087638,107.235594 248.347789,86.7275581 238.321217,68.9488727 C236.154163,72.9039036 234.04713,76.5272426 232.123317,79.6356695"></path>
	</g>
</svg>
